X:1
T:Title
%%score { 1 | 2 }
L:1/8
M:4/4
K:G
V:1 treble nm="Grand Piano"
V:2 bass 
V:1
 z4 z2[Q:1/4=100] D2 | D2 B2 A2 G2 | G3 F F2 F2 | F2 c2 E2 F2 |[M:3/4] [B,E]4 [B,D]2 |[M:1/4] D2 | %6
[M:4/4] D2 G2 B2 [=Fd]2 | [Ed]2 [Ec]2 [EG]3 [EA] | B2 D2 E2 F2 |[M:3/4] [FA]4 G2 |[M:1/4] B2 | %11
[M:4/4] d2 B2 e2 d2 | [Fd]3 [Fc] [Fc]2 [FA]2 | [Fc]2 [FA]2 [Fd]2 [Ac]2 |[M:3/4] [Ac]3 B B2 | %15
[M:1/4] D2 |[M:4/4] D2 G2 B2 d2 |[M:9/8] [=Fd]2 [FG]- [FG] [Ee]2- [Ee] [Ge]2 | %18
[M:4/4] [Gd]2 [DG]2 [DFc]2 [DGB]2 |[M:7/8] [DGB]3 [CDA] [B,DG]3 |] %20
V:2
 z4 z2 [G,B,]2 | [G,B,]2 [G,D]2 [G,CD]2 [G,B,D]2 | [D,B,D]3 [D,A,D] [D,A,D]2 [D,A,D]2 | %3
 [D,A,D]2 [D,A,D]2 [D,A,C]2 [D,F,C]2 |[M:3/4] [G,,G,]4 [G,,G,]2 |[M:1/4] [G,B,]2 | %6
[M:4/4] [G,B,]2 [G,B,D]2 [G,D]2 [B,,G,]2 | [C,G,]2 [C,G,]2 [C,G,]3 [C,G,] | %8
 [D,G,D]2 [D,B,]2 [D,A,C]2 [D,A,C]2 |[M:3/4] [D,C]4 [G,B,]2 |[M:1/4][K:treble] [G,DG]2 | %11
[M:4/4] [G,B,G]2 [G,DG]2 [G,CG]2 [G,B,G]2 | [D,A,]3 [D,D] [D,D]2 [D,D]2 | %13
 [D,A,]2 [D,C]2 [D,A,]2 [D,D]2 |[M:3/4][K:treble] [G,D]3 [G,DG] [G,DG]2 |[M:1/4] [G,B,]2 | %16
[M:4/4] [G,B,]2 [G,B,D]2 [G,DG]2 [G,B,=F]2 | %17
[M:9/8][K:bass] [B,,G,]2 [B,,G,]- [B,,G,] [C,G,]2- [C,G,] [^C,A,]2 | %18
[M:4/4] [D,B,]2 B,,2 A,,2 G,,2 |[M:7/8] D,3 D, G,,3 |] %20

